X:1
T:Title
%%score { 1 | ( 2 3 ) }
L:1/8
M:6/8
K:Ab
V:1 treble nm="Grand Piano"
V:2 bass 
V:3 bass 
V:1
 z3 z2[Q:1/4=100] [CE] | [Ec]>[=D_c][E=c] [CA]2 [CE]/[CE]/ | FA[FB] [Ec]2 c | e>cA E2 B | %4
[M:5/8] A-A- A3 |[M:1/8] c |[M:3/4] c>_c =cA/A/- AF | c>_c =c A2 A | %8
 [DB][DB] [CA][A,DF]/[CDA]/- [CDA][B,DG] |[M:5/8] E-E- E3 |[M:1/8] E |[M:3/4] EF EE FE | %12
 [CE]2 [Ec] [CA]2 [CE] | EF EE FE | [CE]2 [Ec] [CA]3 | e>=d e c3 | [Ec]>[=D_c] [E=c] A3 | %17
 EA ce cA | [=DF]2 [_DB] [CA]3 |] %19
V:2
 z3 z2 [A,,A,] | [A,,A,]>[A,,A,][A,,A,] [A,,A,]2 [A,,A,]/[A,,A,]/ | .D3 z3 | %3
 [E,CE]>[E,A,E][E,CE] [E,D]2 [E,DE] |[M:5/8] [A,CE]-[A,CE]- [A,CE]3 |[M:1/8] [A,E] | %6
[M:3/4] z z/ [F,F]/- [F,F] z z2 | [F,F]2 z2 z2 | [B,,B,][B,,B,] [B,,B,]B,,/B,,/- B,,B,, | %9
[M:5/8] [E,G,]-[E,G,]- [E,G,]3 |[M:1/8] [E,G,D] | %11
[M:3/4] [E,G,D][E,A,D] [E,G,D][E,G,D] [E,A,D][E,G,D] | [A,,A,]2 [A,,A,] [A,,A,]2 [A,,A,] | %13
 [E,G,D][E,A,D] [E,G,D][E,G,D] [E,A,D][E,G,D] | [A,,A,]2 [A,,A,] [A,,A,]3 | %15
 [A,CA]>[A,_CA] [A,=CA][K:bass] [A,E]3 | [A,,A,]>[A,,A,] [A,,A,] [=E,A,=D]3 | %17
 [E,C][E,CE] [E,A,E][E,CE] [E,A,E][E,CE] | [B,,A,]2 [E,G,] [A,,A,]3 |] %19
V:3
 x6 | x6 | [D,A,]-[D,A,F][D,A,] [A,,A,]2 [A,E] | x6 |[M:5/8] x5 |[M:1/8] x | %6
[M:3/4] [F,A,F]>G, A,[F,CF]/[F,CF]/- [F,CF][F,A,] | A,>G, [F,A,F] [F,CF]2 [F,CE] | x6 |[M:5/8] x5 | %10
[M:1/8] x |[M:3/4] x6 | x6 | x6 | x6 | x3[K:bass] x3 | x6 | x6 | x6 |] %19

